Dominus_Dark_Funeral/scalable/apps/alienarena.svg

<svg xmlns="http://www.w3.org/2000/svg" xmlns:xlink="http://www.w3.org/1999/xlink" width="48" height="48" viewBox="0 0 12.7 12.7"><defs><linearGradient id="e"><stop offset="0" stop-color="#afe9c6"/><stop offset="1" stop-color="#2ca05a"/></linearGradient><linearGradient id="d"><stop offset="0" stop-color="#fff"/><stop offset=".37" stop-color="#fff"/><stop offset="1" stop-color="#fff" stop-opacity="0"/></linearGradient><linearGradient id="c"><stop offset="0" stop-color="#fff"/><stop offset="1" stop-color="#fff" stop-opacity="0"/></linearGradient><linearGradient id="a"><stop offset="0" stop-color="#272b2d"/><stop offset="1" stop-color="#33393e"/></linearGradient><linearGradient id="b"><stop offset="0" stop-color="#279646"/><stop offset="1" stop-color="#76ff68"/></linearGradient><linearGradient xlink:href="#d" id="g" x1="5.67" y1="289.04" x2="3.99" y2="290.72" gradientUnits="userSpaceOnUse"/><linearGradient gradientTransform="matrix(-1 0 0 1 12.7 -.03)" xlink:href="#d" id="h" x1="5.67" y1="289.04" x2="3.99" y2="290.72" gradientUnits="userSpaceOnUse"/><radialGradient xlink:href="#e" id="f" cx="6.35" cy="289.61" fx="6.35" fy="289.61" r="5.35" gradientTransform="matrix(1 0 0 1.17077 0 -49.63)" gradientUnits="userSpaceOnUse"/></defs><path d="M6.35 284.4c-1.54 0-2.78.29-3.69.87A3.67 3.67 0 0 0 1 288.52c0 1.91 1.54 4.47 2.01 5.2.54.85 1.13 1.61 1.65 2.16.68.7 1.21 1.03 1.69 1.03s1.01-.33 1.69-1.03c.52-.55 1.11-1.31 1.65-2.15.47-.74 2-3.3 2-5.21 0-1.42-.57-2.54-1.65-3.25a6.75 6.75 0 0 0-3.69-.88z" fill="url(#f)" transform="translate(0 -284.3)"/><path d="M1.04 3.9c0 .1-.04.2-.04.32 0 1.91 1.54 4.47 2.01 5.2.54.85 1.13 1.61 1.65 2.16.68.7 1.21 1.03 1.69 1.03s1.01-.33 1.69-1.03c.52-.55 1.11-1.31 1.65-2.15.47-.74 2-3.3 2-5.21 0-.11-.02-.21-.03-.32-.02.42-.08.86-.21 1.3-.15.53-.36 1.05-.58 1.53-.44.97-.95 1.8-1.18 2.17-.54.84-1.13 1.6-1.65 2.15-.34.35-.64.61-.92.78-.28.17-.53.25-.77.25s-.5-.08-.77-.25a4.76 4.76 0 0 1-.92-.78A14.41 14.41 0 0 1 3.01 8.9c-.23-.37-.74-1.2-1.18-2.17-.22-.48-.43-1-.58-1.52-.13-.45-.19-.89-.21-1.31z" opacity=".5"/><path d="M9.56 4.72c.22-.01.44.01.65.06a2.65 2.65 0 0 1-3.15 3.14 2.65 2.65 0 0 1 2.5-3.2zM3.14 4.77c.64.02 1.29.27 1.78.76.66.65.9 1.56.72 2.4A2.68 2.68 0 0 1 3.2 7.2a2.6 2.6 0 0 1-.72-2.39c.21-.04.43-.06.65-.05z" fill="#1a1a1a"/><g opacity=".6"><path d="M3.14 289.07c.64.02 1.29.27 1.78.76.66.65.9 1.56.72 2.4a2.68 2.68 0 0 1-2.43-.72 2.6 2.6 0 0 1-.72-2.39c.21-.04.43-.06.65-.05z" fill="url(#g)" transform="translate(0 -284.3)"/><path d="M9.56 289.03c-.64.02-1.29.28-1.78.77a2.6 2.6 0 0 0-.72 2.39c.85.18 1.77-.06 2.43-.71.66-.65.9-1.56.72-2.4a2.7 2.7 0 0 0-.65-.05z" fill="url(#h)" transform="translate(0 -284.3)"/></g></svg>

<?xml version="1.0" encoding="UTF-8" standalone="no"?>
<svg
   xmlns:dc="http://purl.org/dc/elements/1.1/"
   xmlns:cc="http://creativecommons.org/ns#"
   xmlns:rdf="http://www.w3.org/1999/02/22-rdf-syntax-ns#"
   xmlns:svg="http://www.w3.org/2000/svg"
   xmlns="http://www.w3.org/2000/svg"
   xmlns:xlink="http://www.w3.org/1999/xlink"
   xmlns:sodipodi="http://sodipodi.sourceforge.net/DTD/sodipodi-0.dtd"
   xmlns:inkscape="http://www.inkscape.org/namespaces/inkscape"
   width="48"
   height="48"
   viewBox="0 0 12.7 12.7"
   version="1.1"
   id="svg46"
   sodipodi:docname="alienarena.svg"
   inkscape:version="0.92.4 (5da689c313, 2019-01-14)">
  <metadata
     id="metadata50">
    <rdf:RDF>
      <cc:Work
         rdf:about="">
        <dc:format>image/svg+xml</dc:format>
        <dc:type
           rdf:resource="http://purl.org/dc/dcmitype/StillImage" />
        <dc:title></dc:title>
      </cc:Work>
    </rdf:RDF>
  </metadata>
  <sodipodi:namedview
     pagecolor="#ffffff"
     bordercolor="#666666"
     borderopacity="1"
     objecttolerance="10"
     gridtolerance="10"
     guidetolerance="10"
     inkscape:pageopacity="0"
     inkscape:pageshadow="2"
     inkscape:window-width="1112"
     inkscape:window-height="480"
     id="namedview48"
     showgrid="false"
     inkscape:zoom="4.9166667"
     inkscape:cx="2.1355932"
     inkscape:cy="24"
     inkscape:window-x="0"
     inkscape:window-y="25"
     inkscape:window-maximized="0"
     inkscape:current-layer="svg46" />
  <defs
     id="defs32">
    <linearGradient
       id="e">
      <stop
         offset="0"
         stop-color="#afe9c6"
         id="stop2" />
      <stop
         offset="1"
         stop-color="#2ca05a"
         id="stop4" />
    </linearGradient>
    <linearGradient
       id="d">
      <stop
         offset="0"
         stop-color="#fff"
         id="stop7" />
      <stop
         offset=".37"
         stop-color="#fff"
         id="stop9" />
      <stop
         offset="1"
         stop-color="#fff"
         stop-opacity="0"
         id="stop11" />
    </linearGradient>
    <linearGradient
       id="c">
      <stop
         offset="0"
         stop-color="#fff"
         id="stop14" />
      <stop
         offset="1"
         stop-color="#fff"
         stop-opacity="0"
         id="stop16" />
    </linearGradient>
    <linearGradient
       id="a">
      <stop
         offset="0"
         stop-color="#272b2d"
         id="stop19" />
      <stop
         offset="1"
         stop-color="#33393e"
         id="stop21" />
    </linearGradient>
    <linearGradient
       id="b">
      <stop
         offset="0"
         stop-color="#279646"
         id="stop24" />
      <stop
         offset="1"
         stop-color="#76ff68"
         id="stop26" />
    </linearGradient>
    <linearGradient
       xlink:href="#d"
       id="g"
       x1="5.67"
       y1="289.04"
       x2="3.99"
       y2="290.72"
       gradientUnits="userSpaceOnUse" />
    <linearGradient
       gradientTransform="matrix(-1,0,0,1,12.7,-0.03)"
       xlink:href="#d"
       id="h"
       x1="5.67"
       y1="289.04"
       x2="3.99"
       y2="290.72"
       gradientUnits="userSpaceOnUse" />
    <radialGradient
       xlink:href="#e"
       id="f"
       cx="6.35"
       cy="289.61"
       fx="6.35"
       fy="289.61"
       r="5.35"
       gradientTransform="matrix(1,0,0,1.17077,0,-333.93)"
       gradientUnits="userSpaceOnUse" />
  </defs>
  <path
     d="M 6.35,0.1 C 4.81,0.1 3.57,0.39 2.66,0.97 A 3.67,3.67 0 0 0 1,4.22 c 0,1.91 1.54,4.47 2.01,5.2 0.54,0.85 1.13,1.61 1.65,2.16 0.68,0.7 1.21,1.03 1.69,1.03 0.48,0 1.01,-0.33 1.69,-1.03 0.52,-0.55 1.11,-1.31 1.65,-2.15 0.47,-0.74 2,-3.3 2,-5.21 0,-1.42 -0.57,-2.54 -1.65,-3.25 A 6.75,6.75 0 0 0 6.35,0.09 Z"
     id="path34"
     style="fill:url(#f)"
     inkscape:connector-curvature="0" />
  <path
     d="M 1.04,3.9 C 1.04,4 1,4.1 1,4.22 c 0,1.91 1.54,4.47 2.01,5.2 0.54,0.85 1.13,1.61 1.65,2.16 0.68,0.7 1.21,1.03 1.69,1.03 0.48,0 1.01,-0.33 1.69,-1.03 0.52,-0.55 1.11,-1.31 1.65,-2.15 0.47,-0.74 2,-3.3 2,-5.21 C 11.69,4.11 11.67,4.01 11.66,3.9 11.64,4.32 11.58,4.76 11.45,5.2 11.3,5.73 11.09,6.25 10.87,6.73 10.43,7.7 9.92,8.53 9.69,8.9 9.15,9.74 8.56,10.5 8.04,11.05 7.7,11.4 7.4,11.66 7.12,11.83 6.84,12 6.59,12.08 6.35,12.08 6.11,12.08 5.85,12 5.58,11.83 A 4.76,4.76 0 0 1 4.66,11.05 14.41,14.41 0 0 1 3.01,8.9 C 2.78,8.53 2.27,7.7 1.83,6.73 1.61,6.25 1.4,5.73 1.25,5.21 1.12,4.76 1.06,4.32 1.04,3.9 Z"
     id="path36"
     inkscape:connector-curvature="0"
     style="opacity:0.5" />
  <path
     d="M 9.56,4.72 C 9.78,4.71 10,4.73 10.21,4.78 A 2.65,2.65 0 0 1 7.06,7.92 2.65,2.65 0 0 1 9.56,4.72 Z M 3.14,4.77 c 0.64,0.02 1.29,0.27 1.78,0.76 0.66,0.65 0.9,1.56 0.72,2.4 A 2.68,2.68 0 0 1 3.2,7.2 2.6,2.6 0 0 1 2.48,4.81 C 2.69,4.77 2.91,4.75 3.13,4.76 Z"
     id="path38"
     inkscape:connector-curvature="0"
     style="fill:#1a1a1a" />
  <g
     id="g44"
     style="opacity:0.6">
    <path
       d="m 3.14,289.07 c 0.64,0.02 1.29,0.27 1.78,0.76 0.66,0.65 0.9,1.56 0.72,2.4 a 2.68,2.68 0 0 1 -2.43,-0.72 2.6,2.6 0 0 1 -0.72,-2.39 c 0.21,-0.04 0.43,-0.06 0.65,-0.05 z"
       transform="translate(0,-284.3)"
       id="path40"
       style="fill:url(#g)"
       inkscape:connector-curvature="0" />
    <path
       d="m 9.56,289.03 c -0.64,0.02 -1.29,0.28 -1.78,0.77 a 2.6,2.6 0 0 0 -0.72,2.39 c 0.85,0.18 1.77,-0.06 2.43,-0.71 0.66,-0.65 0.9,-1.56 0.72,-2.4 a 2.7,2.7 0 0 0 -0.65,-0.05 z"
       transform="translate(0,-284.3)"
       id="path42"
       style="fill:url(#h)"
       inkscape:connector-curvature="0" />
  </g>
</svg>
